X: 10
T:Mc Faddens`s Handsome Daughter
N:s.auch RH11
D:Matt Molloy's Pub Session
M:C
L:1/8
K:AMajor
E2 EF ABce| B2 (3ABc ecAF| EAGB (3AAA af| ecBd cAFA|
E2 (3EFG ABce| B2 (3ABc ecBA| EAGB (3AAA af| ecBd cA A2 :|
|: aece ~f2 af| edcA BAFA| aece ~f2 af| edcB ABce|
aece aecA| ~B2 cA BAFA| agfe ~f2 af| edcB ABce:|
|: e2 ef ecac| ecac bB ~B2| ce (3eee ceae| ecBd cAAB|
ce (3eee ceae| ceae bB ~B2| cefg ~a2 af| eAce aecA :|
